epam-assets/icon-sources/18/text-format.svg

<svg xmlns="http://www.w3.org/2000/svg" width="18" height="18" fill="none" viewBox="0 0 18 18">
  <path fill="#6C6F80" d="M2.25 13.5V12h9v1.5h-9Zm0-3.75v-1.5h13.5v1.5H2.25Zm0-3.75V4.5h13.5V6H2.25Z"/>
</svg>

<svg width="18" height="18" viewBox="0 0 18 18" fill="none" xmlns="http://www.w3.org/2000/svg">
<g id="18/text-format">
<path id="icon" d="M2.25 13.5V12H11.25V13.5H2.25ZM2.25 9.75V8.25H15.75V9.75H2.25ZM2.25 6V4.5H15.75V6H2.25Z" fill="#6C6F80"/>
</g>
</svg>
